src/images/svg/home.svg

<svg width="13" height="12" fill="none"><path d="M12.8449 5.85484c.2247-.24712.203-.62587-.0485-.84576L7.25687.16193c-.25144-.21988-.65456-.21527-.90071.01039L.79776 5.2675c-.24615.22567-.25823.60394-.02675.84455l.13936.14513c.2312.24062.6049.2693.83416.06388l.41541-.372v5.44623c0 .3342.27075.6047.60466.6047h2.16667c.33391 0 .60467-.2705.60467-.6047V7.58515h2.76362v3.81015c-.00481.3339.23411.6045.56801.6045h2.29613c.3339 0 .6047-.2706.6047-.6047V6.02575s.1147.10053.2563.22494c.1413.12416.438.02461.6627-.22275l.1575-.1731Z" fill="#D31342"/></svg>

<svg width="13" height="12" viewBox="0 0 13 12" fill="none" xmlns="http://www.w3.org/2000/svg">
<path d="M12.8449 5.85484C13.0696 5.60772 13.0479 5.22897 12.7964 5.00908L7.25687 0.161935C7.00543 -0.0579491 6.60231 -0.0533429 6.35616 0.172319L0.797761 5.26751C0.551613 5.49318 0.539532 5.87145 0.771013 6.11206L0.91037 6.25719C1.14157 6.49781 1.51527 6.52649 1.74453 6.32107L2.15994 5.94907V11.3953C2.15994 11.7295 2.43069 12 2.7646 12H4.93127C5.26518 12 5.53594 11.7295 5.53594 11.3953V7.58515H8.29956V11.3953C8.29475 11.7292 8.53367 11.9998 8.86757 11.9998H11.1637C11.4976 11.9998 11.7684 11.7292 11.7684 11.3951V6.02575C11.7684 6.02575 11.8831 6.12628 12.0247 6.25069C12.166 6.37485 12.4627 6.2753 12.6874 6.02794L12.8449 5.85484Z" fill="#D31342"/>
</svg>
